X:5499
T:Frau Nachtigall 
R:
O:
S:source
B:Frau Nachtigall (Straßburg - 1928)
Z:<anamnese@caramail.com> -- http://anamnese.fr.st
N:p.3
M:C
L:1/4
Q:1/4=150
K:Eb
"[1.]" B, | EE/B,/ EG | FE/D/ E "[2.]" B, | GG/F/ GB | AG/F/ G "[3.]" B |
 E/G/ G/B/ Be | (e>B) B "[4.]" f | e>d e/B/ G/F/ | (B,F/) E :|
W:Frau Nachtigall klein Vögelein so lehr uns all das Singen
W:fein mit fröhlichem Gelingen aus ganzem Herzen singen !


